X: 1993
T: Yine Bu Yıl Ada Sensiz
C: Osman Nihat Akın
O: Turkey
F: http://compmusic.upf.edu/node/140
N: nihavent--sarki--curcuna--yine_bu--osman_nihat_akin
N: makam= nihavent
N: form= sarki
N: usul= curcuna = 10/8
M: 10/8
L: 1/16
K: C _B _e  
Q: 1/4=156
%%MIDI tuningsystem comma53
e4 e2e4e2 d2d2 c2B2  | d4 d2d4d2 c2B2 A2G2  | \
w:  ARANAĞME  |   | 
G2^F2 G2A2 B2^c2 d2e2 d2c2  | 
w:   | 
d2e2 ^f2g2 a2f2 e2d4z2  | e4 e2e4e2 d2d2 c2B2  | \
w:   |  ARANAĞME  | 
d4 d2d4d2 c2B2 A2G2  | 
w:   | 
G2^F2 G2A2 B2^c2 d2e2 d2c2  | A2B2 c2B2 A2G2 ^F2G4z2  | \
w:   |   | 
G4 b2a2 g2f2 edd4z2  | 
w:  *  Yi ne  *  bu  *  *  yıl   | 
d3c B2c2 dedc BAG4z2  | z4 c2d4d2 c2g6  | \
w:  a *  *  da  *  *  sen *  *  *  siz   |  i çi me  *  hiç   | 
g8-g2a2 gfg4z2  | 
w:   | 
g2ag f2_1/4ed e2f2 gfe4ed  | d18z2  | \
w:  sin *  *  *  *  *  *  me  |  di    | 
cd_1/4ef gaba gaf_e edd3cBA  | 
w:  SAZ  | 
G4 b2a2 g2f2 edd4z2  | d3c B2c2 dedc BAG4z2  | 
w:  *  Yi ne  *  bu  *  *  yıl   |  a *  *  da  *  *  sen *  *  *  siz   | 
z4 c2d4d2 c2g6  | g8-g2a2 gfg4z2  | g2ag f2_1/4ed e2f2 gfe4ed  | 
w:  i çi me  *  hiç   |   |  sin *  *  *  *  *  *  me  | 
d18z2  | cd_1/4ef gaba gafe _edd3gfe  | \
w:  di    |   | 
d4 c2d4d2 c2g6  | 
w:  *  Dil de  yal  | 
fedc d4 g2fe dcde fdec  | d4 d2e2 c2c4c4d2  | 
w:  nız  *  *  *  *  SAZ  |  *  do laş *  tım   | 
dcBA B4 dedc BAB3ABG  | F4 A2B4c2 Bcd4z2  | 
w:  hep  *  *  *  *  SAZ  |  *  göz yaş la *  *  rım   | 
d6d2 A2BA G^FG4z2  | cd_1/4ef gaba gafe _edd3gfe  | 
w:  din *  *  me *  *  *  di    |  SAZ  | 
d4 c2d4d2 c2g6  | fedc d4 g2fe dcde fdec  | 
w:  *  Dil de  yal  |  nız  *  *  *  *  SAZ  | 
d4 d2e2 c2c4c4d2  | dcBA B4 dedc BAB3ABG  | 
w:  *  do laş *  tım   |  hep  *  *  *  *  SAZ  | 
F4 A2B4c2 Bcd4z2  | d6d2 A2BA G^FG4z2  | \
w:  *  göz yaş la *  *  rım   |  din *  *  me *  *  *  di    | 
cd_1/4ef gab2 agag gfgf _edef  | 
w:   | 
g4 f2g2 a2a4a4ag  | g4 c'2c'a2gg4f4_1/4ed  | \
w:  *  Ben  de  *  şaş tım   |  *  na sıl  *  *  ol du   | 
_1/4e4 d2e2 f2g2 {b}agf2 ede2  | 
w:  *  yü re *  ği *  *  *  me   | 
g8 gffe {f}edd4z2  | cd_1/4ef gaba gafe _edd3gfe  | 
w:  in *  *  me *  *  *  *  di    |  SAZ  | 
d4 c2d4d2 c2g6  | fedc d4 g2fe dcde fdec  | 
w:  *  Dil de  yal  |  nız  *  *  *  *  SAZ  | 
d4 d2e2 c2c4c4d2  | dcBA B4 dedc BAB3ABG  | 
w:  *  do laş *  tım   |  hep  *  *  *  *  SAZ  | 
F4 A2B4c2 Bcd4z2  | d6d2 A2BA G^FG4z2  | |


